icons/themes/default/replace.svg

<svg viewBox="0 0 16 16" fill="none" xmlns="http://www.w3.org/2000/svg">
<path fill-rule="evenodd" clip-rule="evenodd" d="M10.4598 1.06055C10.1837 1.06055 9.95985 1.2844 9.95985 1.56055C9.95985 1.83669 10.1837 2.06055 10.4598 2.06055H11.3487C11.8044 2.06286 12.2409 2.24494 12.5632 2.56723C12.8855 2.88952 13.0675 3.32598 13.0698 3.78174V4.20337L12.6204 3.67616C12.4412 3.46602 12.1256 3.44091 11.9155 3.62006C11.7053 3.79922 11.6802 4.1148 11.8594 4.32494L13.1894 5.88494C13.2842 5.99612 13.4229 6.06028 13.569 6.06055C13.7151 6.06082 13.854 5.99717 13.9492 5.88635L15.2892 4.32635C15.4691 4.11687 15.4451 3.8012 15.2357 3.62126C15.0262 3.44133 14.7105 3.46528 14.5306 3.67475L14.0699 4.21114L14.0699 3.78055L14.0698 3.77831C14.0666 3.05851 13.7793 2.36911 13.2703 1.86012C12.7613 1.35114 12.0719 1.06377 11.3521 1.06055H11.3498H10.4598ZM2.83036 10.1362C2.73557 10.025 2.5969 9.96083 2.4508 9.96056C2.3047 9.96029 2.16579 10.0239 2.07059 10.1348L0.730587 11.6948C0.550655 11.9042 0.574603 12.2199 0.784076 12.3998C0.993549 12.5798 1.30922 12.5558 1.48916 12.3464L1.94983 11.81L1.94983 12.2405L1.94984 12.2428C1.95306 12.9626 2.24043 13.652 2.74941 14.161C3.2584 14.6699 3.9478 14.9573 4.6676 14.9605H4.66984H5.55984C5.83598 14.9605 6.05984 14.7367 6.05984 14.4605C6.05984 14.1844 5.83598 13.9605 5.55984 13.9605H4.67103C4.21527 13.9582 3.77882 13.7762 3.45652 13.4539C3.13423 13.1316 2.95215 12.6951 2.94984 12.2394V11.8177L3.39938 12.3449C3.57854 12.5551 3.89412 12.5802 4.10426 12.401C4.3144 12.2219 4.33952 11.9063 4.16036 11.6962L2.83036 10.1362ZM4.32788 1.13856C5.11544 0.981904 5.93177 1.06231 6.67364 1.3696C7.41551 1.67689 8.04959 2.19727 8.49571 2.86493C8.94183 3.5326 9.17995 4.31756 9.17995 5.12055C9.17995 5.28207 9.15525 5.45998 9.1375 5.5879L9.13749 5.58795C9.13311 5.61954 9.12915 5.64808 9.12609 5.67257C9.09184 5.94658 8.84194 6.14094 8.56793 6.10669C8.29392 6.07244 8.09956 5.82254 8.13381 5.54853C8.14053 5.49478 8.14703 5.44726 8.15292 5.40417L8.15293 5.40409L8.15295 5.40397L8.15295 5.40395C8.16857 5.28977 8.17995 5.2066 8.17995 5.12055C8.17995 4.51534 8.00048 3.92372 7.66424 3.4205C7.32801 2.91729 6.8501 2.52508 6.29096 2.29348C5.73182 2.06187 5.11655 2.00127 4.52297 2.11935C3.92939 2.23742 3.38415 2.52885 2.9562 2.9568C2.52825 3.38475 2.23681 3.92999 2.11874 4.52357C2.00067 5.11715 2.06127 5.73242 2.29288 6.29156C2.52448 6.8507 2.91669 7.32861 3.4199 7.66485C3.92312 8.00108 4.51474 8.18055 5.11995 8.18055C5.21155 8.18055 5.28906 8.16973 5.39798 8.15452L5.39801 8.15451L5.39802 8.15451C5.4419 8.14838 5.49088 8.14154 5.54793 8.13441C5.82194 8.10016 6.07183 8.29452 6.10609 8.56853C6.14034 8.84254 5.94597 9.09244 5.67196 9.12669C5.64711 9.1298 5.61814 9.13389 5.58597 9.13844C5.46114 9.15609 5.28809 9.18055 5.11995 9.18055C4.31695 9.18055 3.532 8.94243 2.86433 8.49632C2.19667 8.0502 1.67629 7.41611 1.369 6.67424C1.0617 5.93238 0.981303 5.11604 1.13796 4.32848C1.29461 3.54092 1.68129 2.8175 2.24909 2.2497C2.81689 1.68189 3.54032 1.29522 4.32788 1.13856ZM8.28993 9.12054C8.28993 8.75428 8.38115 8.57142 8.47598 8.4766C8.57081 8.38177 8.75366 8.29054 9.11993 8.29054H13.1299C13.4962 8.29054 13.679 8.38177 13.7739 8.4766C13.8687 8.57142 13.9599 8.75428 13.9599 9.12054V13.1305C13.9599 13.4968 13.8687 13.6797 13.7739 13.7745C13.679 13.8693 13.4962 13.9605 13.1299 13.9605H9.11993C8.75366 13.9605 8.57081 13.8693 8.47598 13.7745C8.38115 13.6797 8.28993 13.4968 8.28993 13.1305V9.12054ZM9.11993 7.29054C8.59952 7.29054 8.11738 7.42098 7.76887 7.76949C7.42037 8.118 7.28993 8.60014 7.28993 9.12054V13.1305C7.28993 13.6509 7.42037 14.1331 7.76887 14.4816C8.11738 14.8301 8.59952 14.9605 9.11993 14.9605H13.1299C13.6503 14.9605 14.1325 14.8301 14.481 14.4816C14.8295 14.1331 14.9599 13.6509 14.9599 13.1305V9.12054C14.9599 8.60014 14.8295 8.118 14.481 7.76949C14.1325 7.42098 13.6503 7.29054 13.1299 7.29054H9.11993Z" fill="currentColor"/>
</svg>

<svg xmlns="http://www.w3.org/2000/svg" fill="none" viewBox="0 0 16 16">
  <path fill="currentColor" fill-rule="evenodd" d="M10.46 1.06a.5.5 0 0 0 0 1h.889a1.73 1.73 0 0 1 1.72 1.722v.421l-.449-.527a.5.5 0 0 0-.76.649l1.33 1.56a.5.5 0 0 0 .76.001l1.34-1.56a.5.5 0 0 0-.76-.651l-.46.536v-.433a2.73 2.73 0 0 0-2.718-2.717h-.892Zm-7.63 9.076a.5.5 0 0 0-.76-.001l-1.34 1.56a.5.5 0 1 0 .76.651l.46-.536v.433a2.73 2.73 0 0 0 2.718 2.717h.892a.5.5 0 1 0 0-1H4.67a1.73 1.73 0 0 1-1.721-1.72v-.422l.45.527a.5.5 0 1 0 .76-.649l-1.33-1.56ZM4.328 1.14A4.06 4.06 0 0 1 9.18 5.12c0 .161-.025.339-.043.467l-.01.085a.5.5 0 0 1-.993-.124l.019-.145c.016-.114.027-.197.027-.283a3.06 3.06 0 1 0-3.06 3.06c.092 0 .17-.011.278-.026.044-.007.093-.013.15-.02a.5.5 0 0 1 .124.992 5.739 5.739 0 0 0-.086.011 3.387 3.387 0 0 1-.466.043 4.06 4.06 0 0 1-.792-8.042ZM8.29 9.12c0-.367.091-.55.186-.644.095-.095.278-.186.644-.186h4.01c.366 0 .549.09.644.186.095.094.186.277.186.644v4.01c0 .366-.091.549-.186.643-.095.095-.278.187-.644.187H9.12c-.366 0-.55-.092-.644-.187-.095-.094-.186-.277-.186-.643V9.12Zm.83-1.83c-.52 0-1.003.13-1.351.478-.349.349-.48.831-.48 1.352v4.01c0 .52.131 1.002.48 1.35.348.35.83.48 1.35.48h4.01c.521 0 1.004-.13 1.352-.48.348-.348.479-.83.479-1.35V9.12c0-.52-.13-1.003-.479-1.352-.348-.348-.83-.478-1.351-.478H9.12Z" clip-rule="evenodd"/>
</svg>
